!!!!SEGMENT: pl-wtm--r-2519--005_hertz-michal--kanon.krn
!!!cenid: 18xx:3832
!!!COM: Hertz, Michał
!!!COM-rismID: pe41023359
!!!CDT: 1844/09/28-~1918
!!!CNT: Polish
!!!OTL: Kanon [5]
!!!PDT:
!!!AGN:
!!!SMS-siglum: PL-Wtm
!!!SMS-shelfmark: R 2519
!!!SMS-shelfwork: 005 W
!!!SMS-variant:
!!!SMS-altvar:
!!!NIFC-rismSourceID: 1001082119
!!!NIFC-rismChildID: 1001082119
!!!NIFC-islandoraID:
!!!URL-pdf-islandora:
!!!URL-scan:
!!!IIIF:
!!!ONB-nifc: UWAGA: 9 Kanonów num. 001-009. Skan 0009-0010
!!!AIN: 2 piano
!!!key: C
**kern	**kern
*part2	*part1
*staff2	*staff1
*I"[Fortepian]	*I"[Fortepian]
*I'	*I'
*Ipiano	*Ipiano
*ICklav	*ICklav
*clefF4	*clefG2
*k[]	*k[]
*C:	*C:
*M4/4	*M4/4
*met(c)	*met(c)
*>[A,B,B1,B,B2,C]	*>[A,B,B1,B,B2,C]
=1	=1
*>A	*>A
8r	2r
8C\L	.
8C\	.
8C\J	.
4.c\	8r
!	!LO:TX:t=x
.	8d\L
.	8d\
8B\	8d\J
=2!|:	=2!|:
*>B	*>B
8B\L	4.dd\
8c\	.
8B\	.
!	!LO:TX:a:t=2
8A\J	8cc\
4.A\	8cc\L
.	8dd\
.	8cc\
8G\	8b\J
=3	=3
8G\L	4.b\
8A\	.
8G\	.
8F\J	8a\
4.F\	8a\L
.	8b\
.	8a\
8E\	8g\J
=4	=4
8r	4.g/
8E\L	.
8E\	.
8E\J	8f/
4.e\	8r
.	8f/L
.	8f/
8d\	8f/J
=5	=5
8d\L	4.ff\
8e\	.
8d\	.
8c\J	8ee\
4.c\	8ee\L
.	8ff\
.	8ee\
8B\	8dd\J
=6	=6
8B\L	4.dd\
8c\	.
8B\	.
8A\J	8cc\
4.A\	8cc\L
.	8dd\
.	8cc\
8G\	8b\J
!!pagebreak:original
=7	=7
8r	4.b\
8G\L	.
8G\	.
8G\J	8a\
4.g>\	8rcc
.	8a/L
.	8a/
8f#X>\	8a/J
=8	=8
8r>	4.aa\
8f#X>\L	.
8f#>\	.
8f#>\J	8gg\
4.e>\	8rcc
.	8gg\L
.	8gg\
8d>\	8gg\J
=9	=9
8r>	4.ff#X\
8d>\L	.
8d>\	.
8d>\J	8ee\
4.c>\	8r
.	8ee\L
.	8ee\
8B>\	8ee\J
=10	=10
8B\L	4.dd\
8c\	.
8B\	.
8A\J	8cc\
8r	8cc\L
8A\L	8dd\
8A\	8cc\
8A\J	8b\J
=11	=11
8G\L	8r
8A\	8b\L
8G\	8b\
!LO:TX:t=P:problem:# poprawiony na kasownik (?)	!
8Fni\J	8b\J
8r	8a\L
8F\L	8b\
8F\	8a\
8F\J	8g\J
=12	=12
8E\L	8r
8F\	8g/L
8E\	8g/
8D\J	8g/J
!	!LO:TX:a:t=12
8D\L	8f/L
8D\	8g/
8D\	8f/
8C\J	8e/J
!!linebreak:original
=13	=13
!!LO:TX:a:B:t=I
*>B1	*>B1
!!LO:TX:t=P:problem:oznaczenie wolty (I) na środku taktu
8r	8e/L
8C\L	8e/
8C\	8e/
8c\J	8d/J
4.c\	8r
.	8d/L
.	8d/
8B\	8d/J
=14:|!	=14:|!
!!LO:TX:a:B:t=II
*>B2	*>B2
!!LO:TX:t=P:problem:oznaczenie wolty (II) na środku taktu
8G\L	8e/L
8A\	8e/
8G\	8e/
8F\J	8d/J
4.F\	8a/L
.	8b/
.	8a/
8E\	8g/J
*>C	*>C
=15	=15
8E\L	4.g/
8F\	.
8E\	.
8D\J	8f/
4.D\	8f/L
.	8g/
.	8f/
8C\	8e/J
=16	=16
8C\L	4.e/
8D\	.
8C\	.
8BB\J	8d/
4.BB/	8d/L
.	8e/
.	8d/
8AA/	8c/J
=17	=17
8AA\L	4.c/
8BB\	.
8AA\	.
8GG\J	8B/
8GG\L	8B/L
8G\	8c/
8G\	8B/
8G\J	8A/J
=18	=18
8F\L	8A/L
8G\	8a/
8F\	8a/
8E\J	8a/J
8E\L	8g/L
8e\	8a/
8e\	8g/
8e\J	8f/J
!!linebreak:original
=19	=19
8d\L	8f\L
8e\	8ff\
8d\	8ff\
8c\J	8ff\J
8c\L	8ee\L
8C\	8ff\
8C\	8ee\
8C\J	8dd\J
=20	=20
!	!LO:TX:t=P:problem:mixed beam
8BB\L	8dd\L
8B\	8d/
8B\	8d/
8B\J	8d/J
!	!LO:TX:t=P:problem:mixed beam
8B\L	8c/L
8A\	8cc\
8A\	8cc\
8A\J	8cc\J
=21	=21
8A\L	8cc\L
8A\	8b\
8G\	8b\
8G\J	8b\J
8G\L	8b\L
8G\	8b\
8G\	8a\
8F\J	8a\J
=22	=22
8F\L	8a/L
8F\	8a/
8F\	8a/
8F\J	8g/J
8E\L	8g/L
8F\	8g/
8E\	8g/
8D\J	8g/J
=23	=23
4.A\	8f/L
.	8g/
.	8f/
8G\	8e/J
8G\L	4.b\
8A\	.
8G\	.
8F\J	8a\
=24	=24
4.F\	8a/L
.	8b/
.	8a/
8E\	8g/J
8E\L	4.g/
8F\	.
8E\	.
8D\J	8f/
!!pagebreak:original
=25	=25
4.D\	8f/L
.	8g/
.	8f/
8C/	8e/J
8G\L	4.e/
8A\	.
8G\	.
8G\J	8d/
=26||	=26||
8r	8a/L
8C\L	8b/
8C\	8a/
8C\J	8a/J
4.c\	8r
.	8d/L
.	8d/
8B\	8d/J
=27	=27
!	!LO:TX:a:t=Takt\n2 – 12\nvon Anfang
8B\Lyy	4.dd\yy
8c\yy	.
8B\yy	.
8A\Jyy	8cc\yy
4.A\yy	8cc\Lyy
.	8dd\yy
.	8cc\yy
8G\yy	8b\Jyy
=28	=28
8G\Lyy	4.b\yy
8A\yy	.
8G\yy	.
8F\Jyy	8a\yy
4.F\yy	8a\Lyy
.	8b\yy
.	8a\yy
8E\yy	8g\Jyy
=29	=29
8ryy	4.g/yy
8E\Lyy	.
8E\yy	.
8E\Jyy	8f/yy
4.e\yy	8ryy
.	8f/Lyy
.	8f/yy
8d\yy	8f/Jyy
=30	=30
8d\Lyy	4.ff\yy
8e\yy	.
8d\yy	.
8c\Jyy	8ee\yy
4.c\yy	8ee\Lyy
.	8ff\yy
.	8ee\yy
8B\yy	8dd\Jyy
=31	=31
8B\Lyy	4.dd\yy
8c\yy	.
8B\yy	.
8A\Jyy	8cc\yy
4.A\yy	8cc\Lyy
.	8dd\yy
.	8cc\yy
8G\yy	8b\Jyy
=32	=32
8ryy	4.b\yy
8G\Lyy	.
8G\yy	.
8G\Jyy	8a\yy
4.g>\yy	8rccyy
.	8a/Lyy
.	8a/yy
8f#X>\yy	8a/Jyy
=33	=33
8r>yy	4.aa\yy
8f#X>\Lyy	.
8f#>\yy	.
8f#>\Jyy	8gg\yy
4.e>\yy	8rccyy
.	8gg\Lyy
.	8gg\yy
8d>\yy	8gg\Jyy
=34	=34
8r>yy	4.ff#X\yy
8d>\Lyy	.
8d>\yy	.
8d>\Jyy	8ee\yy
4.c>\yy	8ryy
.	8ee\Lyy
.	8ee\yy
8B>\yy	8ee\Jyy
=35	=35
8B\Lyy	4.dd\yy
8c\yy	.
8B\yy	.
8A\Jyy	8cc\yy
8ryy	8cc\Lyy
8A\Lyy	8dd\yy
8A\yy	8cc\yy
8A\Jyy	8b\Jyy
=36	=36
8G\Lyy	8ryy
8A\yy	8b\Lyy
8G\yy	8b\yy
!LO:TX:t=P:problem:# poprawiony na kasownik (?)	!
8Fni\Jyy	8b\Jyy
8ryy	8a\Lyy
8F\Lyy	8b\yy
8F\yy	8a\yy
8F\Jyy	8g\Jyy
=37	=37
8E\Lyy	8ryy
8F\yy	8g/Lyy
8E\yy	8g/yy
8D\Jyy	8g/Jyy
8D\Lyy	8f/Lyy
8D\yy	8g/yy
8D\yy	8f/yy
8C\Jyy	8e/Jyy
=38	=38
8r	8e/L
8C\L	8e/
8C\	8e/
8C\J	8e/J
4.c\	8r
.	8d/L
.	8d/
8B\	8d/J
=39	=39
1c;<	1c;
!LO:TX:b:i:t=I.St.d. 31./10.71.	!
==	==
*-	*-
!!!system-decoration: {(s1,s2)}
!!!RDF**kern: > = above
!!!RDF**kern: < = below
!!!RDF**kern: i = editorial accidental
!!!ENC: Katarzyna Serwa
!!!END: 2021-10-23
!!!ENC: Anastazja Marusiak
!!!END: 2021-10-22
!!!YEC: Copyright 2022 Narodowy Instytut Fryderyka Chopina (https://polishscores.org)
!!!YEM: License CC-BY-4.0 (https://creativecommons.org/licenses/by/4.0)
